X:3
T:Polska efter John-Erik Mattson
Z:Lennart Sohlman, \"Alta, Sweden
R:Polska
Q:150
M:3/4
L:1/8
O:Sweden
A:Digerberget, S.J\"amtland
K:G
B>c de dc | (B{cB}A) B3 z | \
(3.B.c.B Ad AF | G2 BG DB, | \
B>c de dc | (B{cB}A) B3 z | 
(3.B.c.B Ad AF | (F<G) G3 z :: \
Bc dg (3.f.g.a | g2 fe d2 | 
A>B (3.c.B.c (dB) | GB (3.d.B.d g2 | \
Bc dg (3.f.g.a | g2 fe d2 | \
A>B (3c(ec) (3B(dB) | Az/F/ G4 :|
